X:36
T:Woolsack. RHu.036, The 
B:R.Hughes MS,1823,Whitchurch,Shrops.
A:Whitchurch, Shropshire
Z:Neil Brookes 2006
M:2/4
L:1/8
Q:1/2=80
R:Country Dance
K:D
d2dA|d2df|efge|fgaf|d2dA|d2de|edef|d4:|
|:a2ag|f2fe|d2dc|B2ef|g2gf|e2ed|cABc|d4:|

